!!! OTL: Cai^, Cha/ (Picking_Leafs)
!!! YEC: Copyright 2001, Chia-wei Lee
!! For Voice ONly
**kern	**silbe	**silbe
*clefG2	*LXinhua	*LXinhua
*b-:	*ping-ying	*ping-ying
*M2/4	*verse1	*verse2
=5	=5	=5
8b-	Zheng-	San-
8b-	Yuie\	Yuie\
8b-	Wo^	Wo^
(16g	Men/	Men/
16f)	|	|
=6	=6	=6
8b-	Cai^	Cai^
8g	Ia	Ia
8b-	A-	A-
8cc	Ha-	Ha-
=7	=7	=7
2dd	Cha/,	Cha/,
=8	=8	=8
4dd	Shi\	Cha/
(8ff	Xin-	Yeh\
8dd)	|	|
=9	=9	=9
(16cc	Ia	Ia
16dd	|	|
16cc	|	|
16b-)	|	|
8g	A-	A-
8f	Ha-	Ha-
=10	=10	=10
(8.b-	Nian/	Qing-,
16cc	|	|
6b-	|	|
6g)	|	|
=11	=11	=11
(8b-	Jie^	Jie^
8g)	|	|
8dd	Mei\	Mei\
(16ff	Ne	Ne
16dd)	|	|
=12	=12	=12
(8cc	Cai^	Fang/
16dd	|	|
16ff	|	|
8cc	|	|
8b-)	|	|
=13	=13	=13
(q8b-	Cha/	Zhong-
4.g	|	|
8f)	|	|
=14	=14	=14
(8b-	Dau\	Xiou\
8g)	|	|
(8cc	Chan-	Shou^
8b-)	|	|
=15	=15	=15
8g	Qian/	Jin-
(16g	Na	Na
16b	|	|
8g	|	|
8f	|.	|.
=16	=16	=16
*	*-	*-
q8b-
2g)
=17
2r
=18
2r
=19
2r
=20
8b-
8b-
8b-
(16g
16f)
=21
8b-
8g
(8b-
8cc)
=22
2dd
=23
4dd
(8ff
8dd)
=24
(16cc
16dd
16cc
16b-)
8g
8f
=25
(8.b-
16cc
8b-
8g)
=26
4ff
(8ff
8dd)
=27
(8cc
16dd
16ff
8cc
8b-)
=28
(q8b-
4.g
8f)
=29
(8b-
8f)
(8cc
8b-)
=30
8g
(16g
16b-
8g
8f
=31
q8b-
2g)
=32
(8b-
8g)
(8cc
8b-)
=33
8g
(16g
16b-
8g
8f
=34
q8b-
2g)
*-
